X:33
T:Cripple Creek
M:4/4
L:1/8
Q:1/4=160
K:G
"G" [g2d2Gd] [gd]g d2 B2 | "C" c2 e2 "G" d4 | [g2d2G2] [gd]g d2 B2 | "D" A2 G2 "G" G4 :|
|: "G" [d2B2] BB "D" A2 G2 | "G" B2 d2 [d4B4] | [d2B2] BB "D" A2 G2 | "D" (DE) [e2B2G2] "G" G4 :|


